src/assets/outline/HomeWifi.svg

<svg width="24" height="24" viewBox="0 0 24 24"  xmlns="http://www.w3.org/2000/svg">
<path d="M17.5998 22.5599H6.39983C4.57983 22.5599 2.91983 21.1598 2.61983 19.3598L1.28984 11.3999C1.07984 10.1599 1.67985 8.56987 2.66985 7.77987L9.59984 2.22982C10.9398 1.14982 13.0498 1.15983 14.3998 2.23983L21.3298 7.77987C22.3098 8.56987 22.9098 10.1599 22.7098 11.3999L21.3798 19.3598C21.0798 21.1298 19.3898 22.5599 17.5998 22.5599ZM11.9898 2.93978C11.4598 2.93978 10.9298 3.09987 10.5398 3.40987L3.60982 8.9598C3.03982 9.4198 2.64982 10.4399 2.76982 11.1599L4.09984 19.1198C4.27984 20.1698 5.32983 21.0599 6.39983 21.0599H17.5998C18.6698 21.0599 19.7198 20.1698 19.8998 19.1098L21.2298 11.1499C21.3498 10.4299 20.9499 9.39979 20.3899 8.94979L13.4598 3.40987C13.0598 3.09987 12.5298 2.93978 11.9898 2.93978Z" />
<path d="M14.12 15.1302C13.93 15.1302 13.7501 15.0602 13.6001 14.9202C12.6301 13.9902 11.3701 13.9902 10.3901 14.9202C10.0901 15.2102 9.62004 15.2002 9.33004 14.9002C9.04004 14.6002 9.05006 14.1302 9.35006 13.8402C10.9001 12.3502 13.0701 12.3502 14.6301 13.8402C14.9301 14.1302 14.94 14.6002 14.65 14.9002C14.52 15.0502 14.32 15.1302 14.12 15.1302Z" />
<path d="M16.2399 13.0098C16.0499 13.0098 15.8599 12.9398 15.7199 12.7998C15.2499 12.3398 14.7199 11.9697 14.1599 11.6997C12.7599 11.0297 11.2299 11.0297 9.83988 11.6997C9.27988 11.9697 8.75988 12.3398 8.27988 12.7998C7.98988 13.0898 7.50988 13.0898 7.21988 12.7898C6.92988 12.4898 6.93989 12.0198 7.22989 11.7298C7.81989 11.1498 8.47989 10.6898 9.18989 10.3498C10.9999 9.47977 12.9999 9.47977 14.7999 10.3498C15.5099 10.6898 16.1699 11.1498 16.7599 11.7298C17.0599 12.0198 17.0599 12.4898 16.7699 12.7898C16.6299 12.9298 16.4399 13.0098 16.2399 13.0098Z" />
<path d="M12.0001 17.5003C11.7401 17.5003 11.4901 17.4002 11.2901 17.2102C10.9001 16.8202 10.9001 16.1903 11.2901 15.8003C11.6801 15.4103 12.32 15.4103 12.71 15.8003C13.1 16.1903 13.1 16.8202 12.71 17.2102C12.51 17.4002 12.2601 17.5003 12.0001 17.5003Z" />
</svg>

<?xml version="1.0" encoding="UTF-8"?>
<svg width="24" height="24" viewBox="0 0 24 24" xmlns="http://www.w3.org/2000/svg">
 <path d="m17.6 22.56h-11.2c-1.82 0-3.48-1.4001-3.78-3.2001l-1.33-7.9599c-0.21-1.24 0.39001-2.83 1.38-3.62l6.93-5.55c1.34-1.08 3.45-1.07 4.8 0.01001l6.93 5.54c0.98 0.79 1.58 2.38 1.38 3.62l-1.33 7.9599c-0.3 1.77-1.99 3.2001-3.78 3.2001zm-5.61-19.62c-0.53 0-1.06 0.16009-1.45 0.47009l-6.93 5.5499c-0.57 0.46-0.96 1.4801-0.84 2.2001l1.33 7.9599c0.18 1.05 1.23 1.9401 2.3 1.9401h11.2c1.07 0 2.12-0.8901 2.3-1.9501l1.33-7.9599c0.12-0.72-0.2799-1.7501-0.8399-2.2001l-6.9301-5.5399c-0.4-0.31-0.93-0.47009-1.47-0.47009z"/>
 <path d="m14.12 15.13c-0.19 0-0.3699-0.07-0.5199-0.21-0.97-0.93-2.23-0.93-3.21 0-0.3 0.29-0.77006 0.28-1.0601-0.02s-0.27998-0.77 0.02002-1.06c1.55-1.49 3.72-1.49 5.28 0 0.3 0.29 0.3099 0.76 0.0199 1.06-0.13 0.15-0.33 0.23-0.53 0.23z"/>
 <path d="m16.24 13.01c-0.19 0-0.38-0.07-0.52-0.21-0.47-0.46-1-0.8301-1.56-1.1001-1.4-0.67-2.93-0.67-4.32 0-0.56 0.27-1.08 0.6401-1.56 1.1001-0.29 0.29-0.77 0.29-1.06-0.01s-0.27999-0.77 0.01001-1.06c0.59-0.58 1.25-1.04 1.96-1.38 1.81-0.87003 3.81-0.87003 5.61 0 0.71 0.34 1.37 0.8 1.96 1.38 0.3 0.29 0.3 0.76 0.01 1.06-0.14 0.14-0.33 0.22-0.53 0.22z"/>
 <path d="m12 17.5c-0.26 0-0.51-0.1001-0.71-0.2901-0.39-0.39-0.39-1.0199 0-1.4099s1.0299-0.39 1.4199 0 0.39 1.0199 0 1.4099c-0.2 0.19-0.4499 0.2901-0.7099 0.2901z"/>
</svg>
